X: 3396
T: Bernie Cunnion's Fling
R: hornpipe
M: 4/4
K: Dmajor
AF DF EF (3DEF|AF (3DEF E2 EF|AF DF EF DF|GE FD E2 EF|
AF (3DEF EF DF|AF (3DEF E2 EF|AF DF EF DF|GE FD E2 EA||
B2 AB dB Ad|~B2 AF E2 EF|DB BA dB AF|GE FD E2 EA|
B2 AB dB Ad|~B2 AF E2 EA|Be ed Bc dB|AF (3DEF E2 EF||

